packages/core/assets/Icons/paste.svg

<svg viewBox="0 0 20 20" fill="none" xmlns="http://www.w3.org/2000/svg">
<path d="M4.16667 17.5C3.70833 17.5 3.31597 17.3368 2.98958 17.0104C2.66319 16.684 2.5 16.2916 2.5 15.8333V4.16665C2.5 3.70831 2.66319 3.31595 2.98958 2.98956C3.31597 2.66317 3.70833 2.49998 4.16667 2.49998H7.64583C7.79861 2.01387 8.09722 1.61456 8.54167 1.30206C8.98611 0.989563 9.47222 0.833313 10 0.833313C10.5556 0.833313 11.0521 0.989563 11.4896 1.30206C11.9271 1.61456 12.2222 2.01387 12.375 2.49998H15.8333C16.2917 2.49998 16.684 2.66317 17.0104 2.98956C17.3368 3.31595 17.5 3.70831 17.5 4.16665V15.8333C17.5 16.2916 17.3368 16.684 17.0104 17.0104C16.684 17.3368 16.2917 17.5 15.8333 17.5H4.16667ZM4.16667 15.8333H15.8333V4.16665H14.1667V5.83331C14.1667 6.06942 14.0868 6.26734 13.9271 6.42706C13.7674 6.58678 13.5694 6.66665 13.3333 6.66665H6.66667C6.43056 6.66665 6.23264 6.58678 6.07292 6.42706C5.91319 6.26734 5.83333 6.06942 5.83333 5.83331V4.16665H4.16667V15.8333ZM10 4.16665C10.2361 4.16665 10.434 4.08679 10.5938 3.92706C10.7535 3.76734 10.8333 3.56942 10.8333 3.33331C10.8333 3.0972 10.7535 2.89929 10.5938 2.73956C10.434 2.57984 10.2361 2.49998 10 2.49998C9.76389 2.49998 9.56597 2.57984 9.40625 2.73956C9.24653 2.89929 9.16667 3.0972 9.16667 3.33331C9.16667 3.56942 9.24653 3.76734 9.40625 3.92706C9.56597 4.08679 9.76389 4.16665 10 4.16665Z" fill="currentColor"/>
</svg>

<svg xmlns="http://www.w3.org/2000/svg" width="20" height="20" fill="none" viewBox="0 0 20 20">
  <path fill="#201F1F" d="M4.167 17.5c-.459 0-.851-.163-1.177-.49a1.605 1.605 0 0 1-.49-1.177V4.167c0-.459.163-.851.49-1.177.326-.327.718-.49 1.177-.49h3.479c.153-.486.451-.885.896-1.198C8.986.99 9.472.833 10 .833a2.5 2.5 0 0 1 1.49.47c.437.312.732.71.885 1.197h3.458c.459 0 .851.163 1.177.49.327.326.49.718.49 1.177v11.666c0 .459-.163.851-.49 1.177-.326.327-.718.49-1.177.49H4.167Zm0-1.667h11.666V4.167h-1.666v1.666c0 .236-.08.434-.24.594a.806.806 0 0 1-.594.24H6.667a.806.806 0 0 1-.594-.24.806.806 0 0 1-.24-.594V4.167H4.167v11.666ZM10 4.167c.236 0 .434-.08.594-.24.16-.16.24-.358.24-.594a.806.806 0 0 0-.24-.593A.807.807 0 0 0 10 2.5a.806.806 0 0 0-.594.24.806.806 0 0 0-.24.593c0 .236.08.434.24.594.16.16.358.24.594.24Z"/>
</svg>
